X: 11436
T: Easy Club, The
R: reel
M: 4/4
K: Amajor
|:AEAc BEGB|ccAc eAce|faag> aaea|caec dcBc|
AEAc BEGB|ccAc eAca|faga efec|1 dBGB A3 B:|2 dBGB A2 ce||
|:faad> aaga|eaac> aaga|faad> aaga|ceec dBGB|
AEcA Bc (3ddd|cAec defg|agae faec|dBGB A4:|

